X: 150
T:The Road to Ballymac
N: page 49
N: heptatonic
M:2/2
L:1/8
R:Reel
K:G
E| "G"DGG2 BAGA|Bdd2 e2de|gdd2 "Em"egdg|\
"G"gedB "Em"ABGE| "G"DGG2 BAGA|
Bdd2 e2de|gdd2 "Em"egdB| "Am"cAFA "G"G3::A|\
"G"Bdd2 edBd|"Em"egg2 "D"a2ga|
"G"bgag "Em"egdg|"G"gedB "Em"ABGA| "G"Bdd2 edBd|\
"Em"egg2 "D"a2ga|"G"bgag "Em"egdB| "Am"cAFA "G"G3:|
